;FLAVOR:Marlin
;TIME:15821
;Filament used: 16.8777m
;Layer height: 0.28
;MINX:41.513
;MINY:41.583
;MINZ:0.28
;MAXX:193.487
;MAXY:193.417
;MAXZ:9.8
;Generated with Cura_SteamEngine 4.6.0
M140 S50
M105
M190 S50
M104 S200
M105
M109 S200
M82 ;absolute extrusion mode
; Ender 3 Custom Start G-code
G92 E0 ; Reset Extruder
G28 ; Home all axes
G1 Z2.0 F3000 ; Move Z Axis up little to prevent scratching of Heat Bed
G1 X0.1 Y20 Z0.3 F5000.0 ; Move to start position
G1 X0.1 Y200.0 Z0.3 F1500.0 E15 ; Draw the first line
G1 X0.4 Y200.0 Z0.3 F5000.0 ; Move to side a little
G1 X0.4 Y20 Z0.3 F1500.0 E30 ; Draw the second line
G92 E0 ; Reset Extruder
G1 Z2.0 F3000 ; Move Z Axis up little to prevent scratching of Heat Bed
G1 X5 Y20 Z0.3 F5000.0 ; Move over to prevent blob squish
G92 E0
G92 E0
G1 F2700 E-5
;LAYER_COUNT:35
;LAYER:0
M107
G0 F6000 X120.929 Y42.394 Z0.28
;TYPE:SKIRT
G1 F2700 E0
G1 F1200 X121.495 Y42.418 E0.02638
G1 X121.973 Y42.452 E0.04869
G1 X122.184 Y42.472 E0.05856
G1 X127.808 Y43.046 E0.3218
G1 X128.529 Y43.13 E0.3556
G1 X129.115 Y43.215 E0.38317
G1 X129.818 Y43.345 E0.41646
G1 X135.329 Y44.479 E0.67845
G1 X135.96 Y44.618 E0.70854
G1 X135.96 Y44.62 E0.70863
G1 X136.546 Y44.764 E0.73673
G1 X137.282 Y44.98 E0.77245
G1 X142.605 Y46.65 E1.03222
G1 X143.239 Y46.858 E1.06329
G1 X143.772 Y47.059 E1.08982
G1 X143.775 Y47.052 E1.09017
G1 X144.525 Y47.356 E1.12785
G1 X149.615 Y49.542 E1.3858
G1 X150.504 Y49.942 E1.43119
G1 X150.831 Y50.103 E1.44816
G1 X151.454 Y50.434 E1.48101
G1 X156.327 Y53.139 E1.74053
G1 X156.972 Y53.51 E1.77518
G1 X157.534 Y53.859 E1.80599
G1 X158.111 Y54.245 E1.83831
G1 X162.644 Y57.402 E2.09553
G1 X163.269 Y57.851 E2.13137
G1 X163.28 Y57.859 E2.132
G1 X163.683 Y58.167 E2.15562
G1 X164.138 Y58.538 E2.18296
G1 X164.216 Y58.604 E2.18771
G1 X168.533 Y62.312 E2.4527
G1 X169.028 Y62.75 E2.48348
G1 X169.026 Y62.752 E2.48361
G1 X169.086 Y62.801 E2.48722
G1 X169.424 Y63.118 E2.5088
G1 X169.994 Y63.695 E2.54656
G1 X173.785 Y67.685 E2.80284
G1 X174.288 Y68.228 E2.83731
G1 X174.672 Y68.668 E2.8645
G1 X175.15 Y69.26 E2.89993
G1 X178.563 Y73.671 E3.15963
G1 X179.002 Y74.255 E3.19365
G1 X179.324 Y74.708 E3.21953
G1 X179.712 Y75.302 E3.25257
G1 X182.667 Y80.045 E3.51278
G1 X183.049 Y80.677 E3.54717
G1 X183.319 Y81.166 E3.57318
G1 X183.325 Y81.163 E3.57349
G1 X183.694 Y81.879 E3.61099
G1 X186.137 Y86.864 E3.86949
G1 X186.443 Y87.512 E3.90286
G1 X186.656 Y87.995 E3.92744
G1 X186.775 Y88.285 E3.94204
G1 X186.904 Y88.613 E3.95845
G1 X188.881 Y93.955 E4.22368
G1 X189.154 Y94.727 E4.26181
G1 X189.166 Y94.762 E4.26354
G1 X189.301 Y95.186 E4.28426
G1 X189.38 Y95.454 E4.29727
G1 X189.479 Y95.815 E4.3147
G1 X189.483 Y95.829 E4.31537
G1 X190.905 Y101.327 E4.57981
G1 X191.066 Y101.985 E4.61135
G1 X191.179 Y102.555 E4.63841
G1 X191.187 Y102.553 E4.63879
G1 X191.315 Y103.287 E4.67349
G1 X192.169 Y108.863 E4.93616
G1 X192.26 Y109.522 E4.96713
G1 X192.311 Y110.067 E4.99262
G1 X192.32 Y110.066 E4.99304
G1 X192.372 Y110.777 E5.02624
G1 X192.374 Y110.81 E5.02778
G1 X192.653 Y116.329 E5.28509
G1 X192.682 Y117.124 E5.32214
G1 X192.687 Y117.693 E5.34863
G1 X192.664 Y118.467 E5.38469
G1 X192.383 Y124.006 E5.64294
G1 X192.326 Y124.856 E5.68261
G1 X192.279 Y125.335 E5.70502
G1 X192.194 Y125.979 E5.73527
G1 X191.327 Y131.629 E6.00144
G1 X191.223 Y132.246 E6.03057
G1 X191.222 Y132.246 E6.03062
G1 X191.091 Y132.909 E6.06209
G1 X190.939 Y133.541 E6.09235
G1 X189.518 Y139.03 E6.35637
G1 X189.35 Y139.641 E6.38588
G1 X189.195 Y140.153 E6.41079
G1 X188.936 Y140.902 E6.44769
G1 X187.02 Y146.072 E6.70443
G1 X186.742 Y146.794 E6.74045
G1 X186.5 Y147.369 E6.7695
G1 X186.2 Y148.012 E6.80254
G1 X183.75 Y153.004 E7.06148
G1 X183.357 Y153.777 E7.10185
G1 X183.347 Y153.796 E7.10285
G1 X183.141 Y154.168 E7.12265
G1 X182.99 Y154.428 E7.13665
G1 X182.827 Y154.698 E7.15134
G1 X179.836 Y159.498 E7.41469
G1 X179.413 Y160.155 E7.45108
G1 X179.093 Y160.622 E7.47744
G1 X178.726 Y161.12 E7.50624
G1 X175.276 Y165.577 E7.76869
G1 X174.793 Y166.184 E7.80481
G1 X174.417 Y166.615 E7.83144
G1 X174.423 Y166.621 E7.83184
G1 X173.936 Y167.156 E7.86552
G1 X170.1 Y171.192 E8.1248
G1 X169.57 Y171.734 E8.1601
G1 X169.172 Y172.106 E8.18547
G1 X169.178 Y172.113 E8.1859
G1 X168.932 Y172.339 E8.20145
G1 X168.675 Y172.568 E8.21748
G1 X164.367 Y176.264 E8.48179
G1 X163.627 Y176.877 E8.52653
G1 X163.133 Y177.252 E8.55541
G1 X162.781 Y177.504 E8.57557
G1 X158.213 Y180.682 E8.83469
G1 X157.587 Y181.105 E8.86987
G1 X157.087 Y181.422 E8.89743
G1 X156.493 Y181.769 E8.92947
G1 X151.585 Y184.492 E9.19082
G1 X150.94 Y184.838 E9.2249
G1 X150.428 Y185.095 E9.25158
G1 X149.776 Y185.391 E9.28492
G1 X144.632 Y187.597 E9.54554
G1 X143.98 Y187.867 E9.5784
G1 X143.425 Y188.068 E9.60589
G1 X143.428 Y188.076 E9.60629
G1 X142.681 Y188.326 E9.64297
G1 X137.355 Y189.996 E9.90287
G1 X136.643 Y190.208 E9.93747
G1 X136.605 Y190.219 E9.93931
G1 X136.112 Y190.348 E9.96304
G1 X135.466 Y190.495 E9.99389
G1 X129.924 Y191.631 E10.25731
G1 X129.26 Y191.758 E10.28879
G1 X128.694 Y191.85 E10.31549
G1 X127.943 Y191.942 E10.35072
G1 X122.383 Y192.506 E10.61095
G1 X121.695 Y192.566 E10.64311
G1 X121.67 Y192.569 E10.64428
G1 X121.098 Y192.602 E10.67096
G1 X120.459 Y192.617 E10.70072
G1 X114.769 Y192.616 E10.96567
G1 X114.072 Y192.606 E10.99813
G1 X113.508 Y192.582 E11.02441
G1 X113.027 Y192.548 E11.04687
G1 X112.816 Y192.528 E11.05674
G1 X107.192 Y191.954 E11.31997
G1 X106.471 Y191.87 E11.35377
G1 X105.885 Y191.785 E11.38135
G1 X105.182 Y191.655 E11.41464
G1 X99.671 Y190.521 E11.67663
G1 X99.04 Y190.382 E11.70671
G1 X99.04 Y190.38 E11.70681
G1 X98.454 Y190.236 E11.73491
G1 X97.718 Y190.02 E11.77062
G1 X92.395 Y188.35 E12.0304
G1 X91.761 Y188.142 E12.06147
G1 X91.228 Y187.941 E12.08799
G1 X91.225 Y187.948 E12.08834
G1 X90.475 Y187.644 E12.12603
G1 X85.384 Y185.458 E12.38402
G1 X84.513 Y185.066 E12.42849
G1 X84.494 Y185.057 E12.42947
G1 X84.169 Y184.897 E12.44634
G1 X83.546 Y184.566 E12.47919
G1 X78.673 Y181.861 E12.73871
G1 X78.028 Y181.49 E12.77336
G1 X77.466 Y181.141 E12.80416
G1 X76.889 Y180.755 E12.83649
G1 X72.346 Y177.591 E13.09428
G1 X71.761 Y177.17 E13.12784
G1 X71.336 Y176.847 E13.15269
G1 X70.891 Y176.486 E13.17938
G1 X70.779 Y176.391 E13.18621
G1 X66.459 Y172.681 E13.45137
G1 X65.956 Y172.235 E13.48267
G1 X65.958 Y172.233 E13.48281
G1 X65.906 Y172.191 E13.48592
G1 X65.571 Y171.876 E13.50733
G1 X65.006 Y171.305 E13.54473
G1 X61.219 Y167.318 E13.80078
G1 X60.709 Y166.768 E13.83571
G1 X60.301 Y166.301 E13.86459
G1 X59.85 Y165.74 E13.8981
G1 X56.437 Y161.329 E14.1578
G1 X55.998 Y160.745 E14.19182
G1 X55.676 Y160.292 E14.2177
G1 X55.288 Y159.698 E14.25074
G1 X52.33 Y154.951 E14.51118
G1 X51.94 Y154.305 E14.54632
G1 X51.658 Y153.807 E14.57297
G1 X51.306 Y153.121 E14.60887
G1 X48.863 Y148.136 E14.86737
G1 X48.557 Y147.488 E14.90074
G1 X48.344 Y147.005 E14.92532
G1 X48.225 Y146.715 E14.93991
G1 X48.096 Y146.387 E14.95633
G1 X46.121 Y141.052 E15.22122
G1 X45.781 Y140.079 E15.26922
G1 X45.617 Y139.535 E15.29567
G1 X45.517 Y139.171 E15.31325
G1 X44.097 Y133.68 E15.57734
G1 X43.934 Y133.016 E15.60918
G1 X43.815 Y132.416 E15.63766
G1 X43.807 Y132.417 E15.63804
G1 X43.685 Y131.713 E15.67131
G1 X42.831 Y126.136 E15.93402
G1 X42.739 Y125.469 E15.96538
G1 X42.677 Y124.911 E15.99152
G1 X42.628 Y124.223 E16.02364
G1 X42.626 Y124.189 E16.02522
G1 X42.343 Y118.598 E16.2859
G1 X42.317 Y117.867 E16.31996
G1 X42.313 Y117.301 E16.34631
G1 X42.338 Y116.497 E16.38377
G1 X42.622 Y110.902 E16.64463
G1 X42.683 Y110.032 E16.68524
G1 X42.722 Y109.657 E16.7028
G1 X42.812 Y108.979 E16.73464
G1 X43.673 Y103.371 E16.99884
G1 X43.777 Y102.754 E17.02797
G1 X43.778 Y102.754 E17.02802
G1 X43.909 Y102.091 E17.05949
G1 X44.061 Y101.459 E17.08975
G1 X45.482 Y95.97 E17.35377
G1 X45.65 Y95.359 E17.38328
G1 X45.805 Y94.847 E17.40819
G1 X46.064 Y94.098 E17.44509
G1 X47.989 Y88.905 E17.70298
G1 X48.26 Y88.202 E17.73806
G1 X48.5 Y87.631 E17.7669
G1 X48.8 Y86.988 E17.79994
G1 X51.25 Y81.996 E18.05887
G1 X51.634 Y81.241 E18.09832
G1 X51.645 Y81.22 E18.09942
G1 X51.862 Y80.826 E18.12036
G1 X52.236 Y80.199 E18.15436
G1 X55.173 Y75.488 E18.41286
G1 X55.587 Y74.845 E18.44847
G1 X55.907 Y74.378 E18.47483
G1 X56.274 Y73.88 E18.50364
G1 X59.753 Y69.387 E18.76824
G1 X60.211 Y68.812 E18.80247
G1 X60.58 Y68.388 E18.82864
G1 X60.574 Y68.382 E18.82904
G1 X61.064 Y67.844 E18.86292
G1 X64.927 Y63.779 E19.12404
G1 X65.433 Y63.262 E19.15773
G1 X65.843 Y62.879 E19.18385
G1 X65.838 Y62.873 E19.18422
G1 X66.327 Y62.432 E19.21488
G1 X70.646 Y58.726 E19.47988
G1 X71.238 Y58.233 E19.51575
G1 X71.266 Y58.21 E19.51744
G1 X71.657 Y57.904 E19.54056
G1 X72.219 Y57.496 E19.5729
G1 X76.787 Y54.318 E19.83201
G1 X77.413 Y53.895 E19.86719
G1 X77.913 Y53.578 E19.89476
G1 X78.507 Y53.231 E19.92679
G1 X83.415 Y50.508 E20.18815
G1 X84.06 Y50.162 E20.22223
G1 X84.572 Y49.905 E20.24891
G1 X85.224 Y49.609 E20.28225
G1 X90.368 Y47.403 E20.54287
G1 X91.02 Y47.133 E20.57573
G1 X91.575 Y46.932 E20.60322
G1 X91.572 Y46.924 E20.60361
G1 X92.319 Y46.674 E20.64029
G1 X97.645 Y45.004 E20.9002
G1 X98.357 Y44.792 E20.93479
G1 X98.395 Y44.781 E20.93663
G1 X98.888 Y44.652 E20.96036
G1 X99.534 Y44.505 E20.99121
G1 X105.076 Y43.369 E21.25464
G1 X105.74 Y43.242 E21.28612
G1 X106.306 Y43.15 E21.31282
G1 X107.057 Y43.058 E21.34805
G1 X112.617 Y42.494 E21.60827
G1 X113.305 Y42.434 E21.64043
G1 X113.33 Y42.431 E21.6416
G1 X113.902 Y42.398 E21.66828
G1 X114.541 Y42.383 E21.69805
G1 X120.231 Y42.384 E21.963
G1 X120.929 Y42.394 E21.9955
G0 F6000 X120.935 Y41.994
G1 F1200 X121.523 Y42.019 E22.02291
G1 X122.006 Y42.054 E22.04546
G1 X122.224 Y42.074 E22.05565
G1 X127.855 Y42.648 E22.31921
G1 X128.576 Y42.732 E22.35301
G1 X129.185 Y42.821 E22.38167
G1 X129.898 Y42.953 E22.41543
G1 X135.415 Y44.088 E22.67771
G1 X136.046 Y44.227 E22.70779
G1 X136.046 Y44.229 E22.70789
G1 X136.654 Y44.379 E22.73705
G1 X137.402 Y44.598 E22.77334
G1 X142.729 Y46.27 E23.03332
G1 X143.363 Y46.478 E23.06439
G1 X143.917 Y46.687 E23.09196
G1 X143.92 Y46.679 E23.09236
G1 X144.683 Y46.989 E23.13071
G1 X149.778 Y49.176 E23.38888
G1 X150.676 Y49.581 E23.43475
G1 X150.697 Y49.591 E23.43584
G1 X151.648 Y50.084 E23.48572
G1 X156.526 Y52.793 E23.74553
G1 X157.171 Y53.164 E23.78018
G1 X157.756 Y53.525 E23.81219
G1 X158.339 Y53.916 E23.84488
G1 X162.877 Y57.077 E24.1024
G1 X163.505 Y57.527 E24.13837
G1 X163.516 Y57.535 E24.139
G1 X163.934 Y57.856 E24.16354
G1 X164.397 Y58.233 E24.19135
G1 X164.476 Y58.301 E24.1962
G1 X168.798 Y62.013 E24.46149
G1 X169.293 Y62.451 E24.49227
G1 X169.287 Y62.458 E24.49269
G1 X169.704 Y62.833 E24.51881
G1 X170.284 Y63.419 E24.5572
G1 X174.078 Y67.414 E24.81375
G1 X174.581 Y67.957 E24.84821
G1 X174.981 Y68.413 E24.87646
G1 X175.466 Y69.015 E24.91245
G1 X178.883 Y73.431 E25.17245
G1 X179.322 Y74.015 E25.20647
G1 X179.656 Y74.486 E25.23336
G1 X180.051 Y75.09 E25.26696
G1 X183.01 Y79.838 E25.52747
G1 X183.392 Y80.47 E25.56185
G1 X183.672 Y80.978 E25.58886
G1 X183.678 Y80.975 E25.58918
G1 X184.053 Y81.703 E25.62731
G1 X186.499 Y86.693 E25.88608
G1 X186.805 Y87.341 E25.91945
G1 X187.026 Y87.843 E25.94499
G1 X187.145 Y88.133 E25.95958
G1 X187.279 Y88.475 E25.97669
G1 X189.258 Y93.821 E26.24213
G1 X189.532 Y94.597 E26.28045
G1 X189.544 Y94.632 E26.28217
G1 X189.684 Y95.073 E26.30371
G1 X189.763 Y95.341 E26.31672
G1 X189.867 Y95.716 E26.33485
G1 X189.87 Y95.729 E26.33547
G1 X191.293 Y101.232 E26.60014
G1 X191.454 Y101.89 E26.63168
G1 X191.572 Y102.481 E26.65974
G1 X191.58 Y102.48 E26.66012
G1 X191.71 Y103.226 E26.69538
G1 X192.565 Y108.808 E26.95833
G1 X192.656 Y109.467 E26.98931
G1 X192.71 Y110.034 E27.01583
G1 X192.719 Y110.033 E27.01625
G1 X192.772 Y110.756 E27.05001
G1 X192.773 Y110.79 E27.05159
G1 X193.053 Y116.315 E27.30919
G1 X193.082 Y117.11 E27.34623
G1 X193.087 Y117.7 E27.37371
G1 X193.063 Y118.487 E27.41037
G1 X192.782 Y124.032 E27.6689
G1 X192.727 Y124.859 E27.70749
G1 X192.725 Y124.886 E27.70875
G1 X192.676 Y125.383 E27.73201
G1 X192.59 Y126.04 E27.76286
G1 X191.722 Y131.696 E28.02931
G1 X191.618 Y132.313 E28.05845
G1 X191.617 Y132.313 E28.05849
G1 X191.481 Y133 E28.0911
G1 X191.326 Y133.641 E28.12181
G1 X189.904 Y139.136 E28.38611
G1 X189.736 Y139.747 E28.41562
G1 X189.574 Y140.279 E28.44151
G1 X189.311 Y141.041 E28.47905
G1 X187.393 Y146.216 E28.73604
G1 X187.115 Y146.938 E28.77206
G1 X186.864 Y147.535 E28.80222
G1 X186.559 Y148.188 E28.83578
G1 X184.107 Y153.185 E29.09496
G1 X183.711 Y153.963 E29.13561
G1 X183.701 Y153.982 E29.13661
G1 X183.487 Y154.368 E29.15716
G1 X183.167 Y154.91 E29.18647
G1 X180.173 Y159.714 E29.45005
G1 X179.75 Y160.371 E29.48644
G1 X179.417 Y160.857 E29.51387
G1 X179.043 Y161.365 E29.54324
G1 X175.589 Y165.826 E29.80595
G1 X175.106 Y166.433 E29.84207
G1 X174.716 Y166.882 E29.86977
G1 X174.722 Y166.887 E29.87013
G1 X174.226 Y167.431 E29.90441
G1 X170.386 Y171.472 E30.16398
G1 X169.856 Y172.014 E30.19928
G1 X169.442 Y172.402 E30.2257
G1 X169.448 Y172.408 E30.2261
G1 X169.202 Y172.634 E30.24165
G1 X168.935 Y172.871 E30.25828
G1 X164.623 Y176.571 E30.52285
G1 X163.876 Y177.19 E30.56802
G1 X163.847 Y177.213 E30.56974
G1 X163.01 Y177.832 E30.61822
G1 X158.437 Y181.014 E30.87763
G1 X157.811 Y181.437 E30.91281
G1 X157.291 Y181.766 E30.94147
G1 X156.687 Y182.119 E30.97404
G1 X151.774 Y184.845 E31.23567
G1 X151.129 Y185.191 E31.26975
G1 X150.597 Y185.457 E31.29745
G1 X149.934 Y185.758 E31.33135
G1 X144.785 Y187.966 E31.59222
G1 X144.133 Y188.236 E31.62508
G1 X143.557 Y188.446 E31.65363
G1 X143.56 Y188.454 E31.65403
G1 X142.8 Y188.708 E31.69134
G1 X137.469 Y190.379 E31.95149
G1 X136.754 Y190.592 E31.98622
G1 X136.716 Y190.603 E31.98807
G1 X136.204 Y190.738 E32.01272
G1 X135.546 Y190.886 E32.04413
G1 X129.999 Y192.024 E32.3078
G1 X129.335 Y192.151 E32.33928
G1 X128.747 Y192.247 E32.36702
G1 X127.983 Y192.34 E32.40286
G1 X122.418 Y192.905 E32.66332
G1 X121.73 Y192.965 E32.69548
G1 X121.704 Y192.967 E32.69669
G1 X121.11 Y193.002 E32.7244
G1 X120.459 Y193.017 E32.75472
G1 X114.763 Y193.016 E33.01995
G1 X114.066 Y193.006 E33.05241
G1 X113.48 Y192.981 E33.07972
G1 X112.994 Y192.946 E33.10241
G1 X112.776 Y192.926 E33.1126
G1 X107.145 Y192.352 E33.37616
G1 X106.424 Y192.268 E33.40996
G1 X105.815 Y192.179 E33.43862
G1 X105.102 Y192.047 E33.47239
G1 X99.585 Y190.912 E33.73466
G1 X98.954 Y190.773 E33.76475
G1 X98.954 Y190.771 E33.76484
G1 X98.346 Y190.621 E33.794
G1 X97.598 Y190.402 E33.83029
G1 X92.271 Y188.73 E34.09027
G1 X91.637 Y188.522 E34.12134
G1 X91.083 Y188.313 E34.14891
G1 X91.08 Y188.321 E34.14931
G1 X90.317 Y188.011 E34.18766
G1 X85.221 Y185.823 E34.4459
G1 X84.341 Y185.428 E34.49081
G1 X84.322 Y185.419 E34.49179
G1 X83.352 Y184.916 E34.54267
G1 X78.474 Y182.207 E34.80249
G1 X77.829 Y181.836 E34.83713
G1 X77.244 Y181.475 E34.86914
G1 X76.661 Y181.084 E34.90183
G1 X72.112 Y177.916 E35.15996
G1 X71.527 Y177.495 E35.19352
G1 X71.086 Y177.159 E35.21933
G1 X70.633 Y176.792 E35.24648
G1 X70.518 Y176.695 E35.25349
G1 X66.194 Y172.98 E35.51893
G1 X65.691 Y172.534 E35.55024
G1 X65.697 Y172.527 E35.55067
G1 X65.29 Y172.161 E35.57615
G1 X64.716 Y171.581 E35.61415
G1 X60.925 Y167.59 E35.87047
G1 X60.415 Y167.04 E35.90539
G1 X59.992 Y166.555 E35.93536
G1 X59.534 Y165.985 E35.96941
G1 X56.117 Y161.569 E36.2294
G1 X55.678 Y160.985 E36.26342
G1 X55.344 Y160.514 E36.29031
G1 X54.949 Y159.91 E36.32391
G1 X51.987 Y155.157 E36.58469
G1 X51.597 Y154.511 E36.61983
G1 X51.305 Y153.994 E36.64748
G1 X50.947 Y153.297 E36.68396
G1 X48.501 Y148.307 E36.94273
G1 X48.195 Y147.659 E36.9761
G1 X47.974 Y147.157 E37.00164
G1 X47.855 Y146.867 E37.01624
G1 X47.721 Y146.525 E37.03334
G1 X45.744 Y141.186 E37.29844
G1 X45.4 Y140.202 E37.34698
G1 X45.234 Y139.648 E37.37391
G1 X45.13 Y139.271 E37.39212
G1 X43.709 Y133.775 E37.65646
G1 X43.546 Y133.111 E37.68829
G1 X43.421 Y132.488 E37.71788
G1 X43.414 Y132.489 E37.71821
G1 X43.29 Y131.774 E37.752
G1 X42.434 Y126.19 E38.01505
G1 X42.342 Y125.523 E38.0464
G1 X42.279 Y124.943 E38.07357
G1 X42.228 Y124.244 E38.1062
G1 X42.227 Y124.209 E38.10783
G1 X41.944 Y118.612 E38.36879
G1 X41.918 Y117.881 E38.40285
G1 X41.913 Y117.293 E38.43023
G1 X41.938 Y116.477 E38.46824
